app/images/icons/asian-icon.svg

<svg width="44" height="44" viewBox="0 0 44 44" fill="none" xmlns="http://www.w3.org/2000/svg">
<g id="christmas-dinner 2" clip-path="url(#clip0_0_200)">
<g id="Group">
<g id="Group_2">
<path id="Vector" d="M15.1315 13.5667H17.2563C17.8077 13.5667 18.2562 14.0152 18.2562 14.5666V16.0315C18.2562 16.3875 18.5448 16.676 18.9007 16.676C19.2567 16.676 19.5453 16.3875 19.5453 16.0315V14.5666C19.5453 13.3044 18.5184 12.2777 17.2563 12.2777H15.1315C14.5894 12.2777 14.1484 11.8366 14.1484 11.2945C14.1484 10.7524 14.5894 10.3115 15.1315 10.3115H19.843C21.0959 10.3115 22.1151 9.2922 22.1151 8.03931C22.1151 6.78643 21.0958 5.76721 19.843 5.76721H16.0738C15.7179 5.76721 15.4293 6.05579 15.4293 6.41174C15.4293 6.7677 15.7179 7.05627 16.0738 7.05627H19.843C20.3851 7.05627 20.8261 7.49731 20.8261 8.03931C20.8261 8.58141 20.385 9.02244 19.843 9.02244H15.1315C13.8786 9.02244 12.8593 10.0417 12.8593 11.2945C12.8593 12.5474 13.8786 13.5667 15.1315 13.5667Z" fill="#363853"/>
<path id="Vector_2" d="M7.38858 17.8924H9.49714C10.0415 17.8924 10.4844 18.3354 10.4844 18.8798V20.3335C10.4844 20.6895 10.773 20.978 11.1289 20.978C11.4849 20.978 11.7735 20.6895 11.7735 20.3335V18.8798C11.7735 17.6246 10.7523 16.6034 9.49714 16.6034H7.38858C6.85336 16.6034 6.418 16.1679 6.418 15.6328C6.418 15.0977 6.85345 14.6622 7.38858 14.6622H9.85387C10.2098 14.6622 10.4984 14.3737 10.4984 14.0177C10.4984 13.6617 10.2098 13.3732 9.85387 13.3732H7.38858C6.14257 13.3732 5.12894 14.3868 5.12894 15.6328C5.12894 16.8788 6.14257 17.8924 7.38858 17.8924Z" fill="#363853"/>
<path id="Vector_3" d="M25.6523 26.8125C26.0083 26.8125 26.2969 26.5239 26.2969 26.168C26.2969 25.812 26.0083 25.5234 25.6523 25.5234C25.2964 25.5234 25.0078 25.812 25.0078 26.168C25.0078 26.5239 25.2964 26.8125 25.6523 26.8125Z" fill="#363853"/>
<path id="Vector_4" d="M28.832 28.2734C29.188 28.2734 29.4766 27.9849 29.4766 27.6289C29.4766 27.2729 29.188 26.9844 28.832 26.9844C28.4761 26.9844 28.1875 27.2729 28.1875 27.6289C28.1875 27.9849 28.4761 28.2734 28.832 28.2734Z" fill="#363853"/>
<path id="Vector_5" d="M30.7227 30.5078C31.0786 30.5078 31.3672 30.2192 31.3672 29.8633C31.3672 29.5073 31.0786 29.2188 30.7227 29.2188C30.3667 29.2188 30.0781 29.5073 30.0781 29.8633C30.0781 30.2192 30.3667 30.5078 30.7227 30.5078Z" fill="#363853"/>
<path id="Vector_6" d="M28.0586 25.2656C28.4146 25.2656 28.7031 24.9771 28.7031 24.6211C28.7031 24.2651 28.4146 23.9766 28.0586 23.9766C27.7026 23.9766 27.4141 24.2651 27.4141 24.6211C27.4141 24.9771 27.7026 25.2656 28.0586 25.2656Z" fill="#363853"/>
<path id="Vector_7" d="M25.9102 30.9375C26.2661 30.9375 26.5547 30.6489 26.5547 30.293C26.5547 29.937 26.2661 29.6484 25.9102 29.6484C25.5542 29.6484 25.2656 29.937 25.2656 30.293C25.2656 30.6489 25.5542 30.9375 25.9102 30.9375Z" fill="#363853"/>
<path id="Vector_8" d="M42.9114 22.8109H41.083L41.9867 20.9433C43.1331 20.715 44 19.7014 44 18.4889C44 17.2453 43.0882 16.2111 41.8981 16.0186C40.5827 13.6495 38.0131 11.8701 34.8968 11.1599V11.1107C34.8968 10.7548 34.6083 10.4662 34.2523 10.4662C33.9573 10.4662 33.7091 10.6646 33.6326 10.9351C33.2401 10.8845 32.8407 10.8517 32.4363 10.8349C32.333 10.6172 32.1116 10.4662 31.8545 10.4662C31.5973 10.4662 31.376 10.6172 31.2726 10.8349C30.8681 10.8517 30.4687 10.8845 30.0762 10.9352C29.9998 10.6647 29.7516 10.4662 29.4565 10.4662C29.1005 10.4662 28.812 10.7548 28.812 11.1107V11.1599C25.6958 11.8701 23.1261 13.6496 21.8108 16.0186C20.6207 16.2111 19.709 17.2453 19.709 18.4889C19.709 18.5615 19.7123 18.6333 19.7184 18.7043C16.7427 18.981 14.0692 20.2242 12.0633 22.0896H8.01359C7.73755 22.0896 7.4904 22.2134 7.32316 22.408H5.43039C5.12033 21.6246 4.35067 21.071 3.47342 21.071C2.31344 21.071 1.36976 22.0146 1.36976 23.1746C1.36976 23.2737 1.37758 23.3717 1.39124 23.4683C0.580851 23.7608 0 24.5375 0 25.4474C0 25.8514 0.114727 26.2398 0.325445 26.5722C0.114727 26.9047 0 27.293 0 27.697C0 28.857 0.94368 29.8007 2.10366 29.8007C2.98091 29.8007 3.75057 29.2471 4.06063 28.4636H5.76537C5.84358 28.7509 6.0592 28.988 6.35087 29.087L8.37177 29.7733C8.35974 29.9815 8.35321 30.1911 8.35321 30.4021C8.35321 30.6009 8.35888 30.7988 8.36945 30.9961C8.05346 31.0723 7.75852 31.2031 7.49607 31.3792C7.06398 31.0894 6.54491 30.9197 5.98666 30.9197C4.48791 30.9197 3.26863 32.139 3.26863 33.6378C3.26863 33.6607 3.27035 33.6833 3.27095 33.7061H2.51685C2.09129 33.7061 1.71411 33.9452 1.53244 34.3299C1.35077 34.7147 1.40585 35.1578 1.6763 35.4864L3.6098 37.8359C3.81743 38.088 4.12371 38.2327 4.45036 38.2327H31.7103C32.0663 38.2327 32.3548 37.9441 32.3548 37.5882C32.3548 37.2322 32.0663 36.9436 31.7103 36.9436H4.54498L2.94147 34.9952H42.4853L40.8818 36.9436H34.7181C34.362 36.9436 34.0735 37.2322 34.0735 37.5882C34.0735 37.9441 34.362 38.2327 34.7181 38.2327H40.9764C41.3031 38.2327 41.6095 38.088 41.8169 37.8358L43.7504 35.4865C44.0207 35.1578 44.0759 34.7147 43.8942 34.3299C43.7126 33.9451 43.3354 33.7061 42.9099 33.7061H42.2716C42.905 32.61 43.143 31.311 42.9119 30.0346C42.8639 29.7702 42.657 29.5631 42.3925 29.5153C40.6466 29.1992 38.857 29.758 37.6048 31.0101C37.5283 31.0865 37.4554 31.1658 37.3842 31.2462C37.0148 31.0462 36.594 30.9301 36.1474 30.9214V29.695H36.835C37.925 29.695 38.8117 28.8083 38.8117 27.7183V26.8531H42.9114C43.5116 26.8531 44 26.3647 44 25.7645V23.8995C44 23.2992 43.5116 22.8109 42.9114 22.8109ZM6.29054 33.7062H4.56002C4.5589 33.6835 4.5577 33.6608 4.5577 33.6379C4.5577 32.8499 5.1987 32.2089 5.98666 32.2089C6.21079 32.2089 6.42254 32.2614 6.61126 32.354C6.40535 32.7365 6.28813 33.1737 6.28813 33.6379C6.28822 33.6608 6.28994 33.6833 6.29054 33.7062ZM38.5163 31.9216C39.3595 31.0786 40.5223 30.6483 41.7005 30.7267C41.7727 31.812 41.412 32.8847 40.6953 33.7062H39.6325L40.5131 32.8256C40.7648 32.5739 40.7648 32.1658 40.5131 31.9141C40.2613 31.6624 39.8533 31.6624 39.6015 31.9141L38.6882 32.8275C38.6075 32.5698 38.4893 32.3286 38.3402 32.1101C38.3969 32.0456 38.4553 31.9826 38.5163 31.9216ZM25.5032 13.9422C26.4787 13.2886 27.6054 12.7984 28.812 12.4901V13.1534C28.812 13.5093 29.1005 13.7979 29.4565 13.7979C29.8126 13.7979 30.1011 13.5093 30.1011 13.1534V12.2345C30.4665 12.1825 30.8368 12.1482 31.2099 12.129V13.1534C31.2099 13.5093 31.4984 13.7979 31.8545 13.7979C32.2105 13.7979 32.499 13.5093 32.499 13.1534V12.129C32.8721 12.1482 33.2424 12.1826 33.6077 12.2345V13.1534C33.6077 13.5093 33.8962 13.7979 34.2523 13.7979C34.6083 13.7979 34.8968 13.5093 34.8968 13.1534V12.4901C36.1035 12.7984 37.2302 13.2886 38.2057 13.9423C39.1561 14.579 39.9304 15.3479 40.4945 16.1982C40.2768 16.294 40.0729 16.42 39.89 16.5732C39.4452 16.2005 38.8773 15.9861 38.2829 15.9861C37.6885 15.9861 37.1205 16.2005 36.6758 16.5732C36.231 16.2005 35.663 15.9861 35.0687 15.9861C34.4743 15.9861 33.9063 16.2005 33.4616 16.5732C33.0168 16.2005 32.4488 15.9861 31.8545 15.9861C31.26 15.9861 30.6921 16.2005 30.2473 16.5732C29.8025 16.2005 29.2346 15.9861 28.6402 15.9861C28.0458 15.9861 27.4778 16.2005 27.0331 16.5732C26.5884 16.2005 26.0204 15.9861 25.426 15.9861C24.8316 15.9861 24.2637 16.2005 23.8189 16.5732C23.6361 16.42 23.4321 16.294 23.2144 16.1982C23.7785 15.3478 24.5528 14.5789 25.5032 13.9422ZM22.2117 17.2751C22.642 17.2751 23.0441 17.5077 23.2612 17.8822C23.3765 18.0809 23.5889 18.2034 23.8188 18.2034C24.0486 18.2034 24.261 18.081 24.3763 17.8823C24.5935 17.5077 24.9957 17.2751 25.4259 17.2751C25.8562 17.2751 26.2584 17.5077 26.4755 17.8822C26.5908 18.0809 26.8031 18.2034 27.033 18.2034C27.2629 18.2034 27.4752 18.081 27.5906 17.8822C27.8077 17.5077 28.2098 17.2751 28.6401 17.2751C29.0703 17.2751 29.4725 17.5077 29.6898 17.8823C29.8051 18.081 30.0175 18.2034 30.2472 18.2034C30.4771 18.2034 30.6895 18.081 30.8048 17.8822C31.0219 17.5077 31.4241 17.2751 31.8544 17.2751C32.2846 17.2751 32.6868 17.5077 32.904 17.8823C33.0192 18.081 33.2317 18.2034 33.4615 18.2034C33.6914 18.2034 33.9037 18.081 34.019 17.8822C34.2361 17.5077 34.6383 17.2751 35.0686 17.2751C35.4988 17.2751 35.901 17.5077 36.1182 17.8823C36.2336 18.081 36.4459 18.2034 36.6757 18.2034C36.9056 18.2034 37.118 18.081 37.2333 17.8822C37.4504 17.5077 37.8525 17.2751 38.2828 17.2751C38.713 17.2751 39.1152 17.5077 39.3325 17.8823C39.4477 18.081 39.6602 18.2034 39.89 18.2034C40.1198 18.2034 40.3322 18.081 40.4475 17.8822C40.6646 17.5077 41.0668 17.2751 41.4971 17.2751C42.1663 17.2751 42.7108 17.8195 42.7108 18.4888C42.7108 19.1581 42.1663 19.7025 41.4971 19.7025C41.0668 19.7025 40.6646 19.4699 40.4475 19.0954C40.3322 18.8967 40.1198 18.7742 39.89 18.7742C39.6602 18.7742 39.4477 18.8966 39.3325 19.0953C39.1152 19.4699 38.713 19.7025 38.2828 19.7025C37.8525 19.7025 37.4504 19.4699 37.2333 19.0954C37.118 18.8967 36.9056 18.7742 36.6757 18.7742C36.4459 18.7742 36.2335 18.8966 36.1182 19.0953C35.901 19.4699 35.4988 19.7025 35.0686 19.7025C34.6383 19.7025 34.2361 19.4699 34.019 19.0954C33.9037 18.8967 33.6914 18.7742 33.4615 18.7742C33.2317 18.7742 33.0192 18.8966 32.904 19.0953C32.6868 19.4699 32.2846 19.7025 31.8544 19.7025C31.4241 19.7025 31.0219 19.4699 30.8048 19.0954C30.6895 18.8967 30.4771 18.7742 30.2472 18.7742C30.0175 18.7742 29.805 18.8966 29.6898 19.0953C29.4725 19.4699 29.0703 19.7025 28.6401 19.7025C28.2098 19.7025 27.8077 19.4699 27.5906 19.0954C27.4752 18.8967 27.2629 18.7742 27.033 18.7742C26.8031 18.7742 26.5908 18.8966 26.4755 19.0954C26.3486 19.3142 26.1583 19.4841 25.9363 19.5879C24.4222 18.9847 22.7569 18.6492 21.0094 18.6458C21.0026 18.5943 20.998 18.5422 20.998 18.4888C20.998 17.8195 21.5424 17.2751 22.2117 17.2751ZM8.39163 23.3786H10.8635C10.6095 23.6949 10.3712 24.0227 10.1518 24.3624H8.39163V23.3786ZM5.7328 27.1746H3.5567C3.22145 27.1746 2.94216 27.4316 2.9144 27.7657C2.87968 28.184 2.52355 28.5116 2.10375 28.5116C1.65455 28.5116 1.28915 28.1462 1.28915 27.697C1.28915 27.4535 1.397 27.2244 1.58512 27.0688C1.7331 26.9463 1.81878 26.7643 1.81878 26.5722C1.81878 26.38 1.7331 26.198 1.58512 26.0755C1.397 25.9199 1.28915 25.691 1.28915 25.4473C1.28915 24.9981 1.65455 24.6327 2.10375 24.6327C2.52355 24.6327 2.87968 24.9603 2.9144 25.3786C2.94216 25.7127 3.22145 25.9697 3.5567 25.9697H5.73289V27.1746H5.7328ZM5.95332 24.6808H4.06063C3.82362 24.082 3.31779 23.6184 2.70093 23.4327C2.67343 23.3505 2.65873 23.2635 2.65873 23.1745C2.65873 22.7253 3.02414 22.3599 3.47334 22.3599C3.89314 22.3599 4.24927 22.6876 4.28407 23.1058C4.31183 23.4399 4.59113 23.697 4.92637 23.697H7.10256V24.3624H6.64383C6.3678 24.3624 6.12055 24.4863 5.95332 24.6808ZM10.433 33.7062H7.5796C7.57848 33.6835 7.57728 33.6608 7.57728 33.6379C7.57728 32.8499 8.21829 32.2089 9.00625 32.2089C9.79421 32.2089 10.4352 32.8499 10.4352 33.6379C10.4353 33.6608 10.434 33.6835 10.433 33.7062ZM30.3116 33.7062H28.0679C28.0668 33.6835 28.0656 33.6608 28.0656 33.6379C28.0656 32.8499 28.7066 32.2089 29.4946 32.2089C29.8885 32.2089 30.2459 32.3692 30.5046 32.6279C30.3791 32.9404 30.3093 33.281 30.3093 33.6379C30.3092 33.6608 30.311 33.6833 30.3116 33.7062ZM29.4946 30.9197C27.9959 30.9197 26.7765 32.139 26.7765 33.6378C26.7765 33.6607 26.7782 33.6833 26.7788 33.7061H11.722C11.7226 33.6832 11.7244 33.6607 11.7244 33.6378C11.7244 32.3649 10.8446 31.294 9.66135 31C9.64915 30.8017 9.64227 30.6024 9.64227 30.4021C9.64227 30.3364 9.64322 30.2709 9.64451 30.2054L16.2366 32.4439C16.6807 32.5948 17.1349 32.6691 17.5847 32.6691C18.4345 32.6691 19.2687 32.4037 19.9891 31.8877C21.0906 31.0983 21.7223 29.8685 21.7223 28.5133C21.7223 28.0288 21.6392 27.5535 21.4753 27.1005C21.3541 26.7658 20.9846 26.5927 20.6498 26.7139C20.3151 26.835 20.142 27.2046 20.2632 27.5393C20.3761 27.8512 20.4334 28.1789 20.4334 28.5132C20.4334 29.4475 19.9978 30.2955 19.2383 30.8396C18.479 31.3838 17.5359 31.5235 16.6512 31.2232L7.02195 27.9534V25.6514H17.5715C17.8948 25.6514 18.2133 25.7056 18.5182 25.8125C18.8543 25.9304 19.222 25.7534 19.3397 25.4173C19.4575 25.0813 19.2805 24.7137 18.9446 24.5959C18.5023 24.4409 18.0403 24.3623 17.5715 24.3623H11.7273C13.7835 21.6855 17.1654 19.9344 20.9831 19.9344C27.2364 19.9344 32.3238 24.6302 32.3238 30.4021C32.3238 30.6083 32.3166 30.8135 32.3036 31.0178C31.9142 31.1257 31.5596 31.3183 31.2609 31.5745C30.7855 31.1668 30.1685 30.9197 29.4946 30.9197ZM34.454 33.7062H31.6006C31.5995 33.6835 31.5983 33.6608 31.5983 33.6379C31.5983 32.8499 32.2393 32.2089 33.0272 32.2089C33.8152 32.2089 34.4563 32.8499 34.4563 33.6379C34.4563 33.6608 34.4551 33.6835 34.454 33.7062ZM34.8583 31.2197C34.7555 31.2725 34.6558 31.3304 34.5611 31.3954C34.2745 31.1988 33.9482 31.0568 33.5974 30.9815C33.6073 30.7892 33.6128 30.5961 33.6128 30.4022C33.6128 30.1646 33.6029 29.9292 33.5878 29.695H34.8583V31.2197ZM37.5226 33.6378C37.5226 33.6607 37.5214 33.6834 37.5203 33.7061H35.743C35.7436 33.6832 35.7454 33.6607 35.7454 33.6378C35.7454 33.181 35.6316 32.7505 35.4317 32.3723C35.6296 32.2679 35.8547 32.2088 36.0937 32.2088C36.8816 32.2088 37.5226 32.8498 37.5226 33.6378ZM37.5226 27.7184C37.5226 28.0976 37.2142 28.406 36.835 28.406H33.4281C33.33 27.8757 33.1959 27.3568 33.0241 26.8531H37.5226V27.7184ZM42.7109 25.564H32.4932C32.2456 25.0557 31.9601 24.5668 31.6404 24.0999H34.375C34.731 24.0999 35.0195 23.8113 35.0195 23.4554C35.0195 23.0994 34.731 22.8109 34.375 22.8109H30.6187C30.0022 22.1339 29.3059 21.5221 28.5421 20.9893C28.5747 20.9906 28.6074 20.9916 28.6401 20.9916C29.2345 20.9916 29.8024 20.7771 30.2472 20.4044C30.692 20.7771 31.26 20.9916 31.8544 20.9916C32.4487 20.9916 33.0167 20.7771 33.4615 20.4044C33.9062 20.7771 34.4743 20.9916 35.0686 20.9916C35.6629 20.9916 36.2309 20.7771 36.6757 20.4044C37.1204 20.7771 37.6885 20.9916 38.2828 20.9916C38.8772 20.9916 39.4451 20.7771 39.89 20.4044C40.105 20.5846 40.3489 20.7274 40.6106 20.8272L39.6508 22.8109H37.3828C37.0268 22.8109 36.7383 23.0994 36.7383 23.4554C36.7383 23.8113 37.0268 24.0999 37.3828 24.0999H42.7109V25.564Z" fill="#363853"/>
</g>
</g>
</g>
<defs>
<clipPath id="clip0_0_200">
<rect width="44" height="44" fill="white"/>
</clipPath>
</defs>
</svg>

<svg xmlns="http://www.w3.org/2000/svg" width="44" height="44" fill="none"><path d="M15.132 13.567h2.124c.552 0 1 .448 1 1v1.465a.644.644 0 1 0 1.29 0v-1.465a2.292 2.292 0 0 0-2.29-2.29h-2.124a.984.984 0 0 1 0-1.965h4.711a2.275 2.275 0 0 0 2.272-2.273 2.275 2.275 0 0 0-2.272-2.272h-3.77a.645.645 0 0 0 0 1.29h3.77a.984.984 0 0 1 0 1.965h-4.711a2.275 2.275 0 0 0-2.273 2.272 2.275 2.275 0 0 0 2.273 2.273ZM7.389 17.892h2.108c.544 0 .987.443.987.988v1.454a.644.644 0 1 0 1.29 0V18.88a2.279 2.279 0 0 0-2.277-2.277H7.39a.972.972 0 0 1 0-1.94h2.465a.645.645 0 1 0 0-1.29H7.389a2.262 2.262 0 0 0-2.26 2.26 2.262 2.262 0 0 0 2.26 2.26ZM25.652 26.813a.645.645 0 1 0 0-1.29.645.645 0 0 0 0 1.29ZM28.832 28.273a.645.645 0 1 0 0-1.289.645.645 0 0 0 0 1.29ZM30.723 30.508a.645.645 0 1 0 0-1.29.645.645 0 0 0 0 1.29ZM28.059 25.266a.644.644 0 1 0 0-1.29.644.644 0 0 0 0 1.29ZM25.91 30.938a.645.645 0 1 0 0-1.29.645.645 0 0 0 0 1.29Z"/><path d="M42.911 22.81h-1.828l.904-1.867A2.507 2.507 0 0 0 44 18.49a2.507 2.507 0 0 0-2.102-2.47c-1.315-2.37-3.885-4.149-7.001-4.86v-.048a.644.644 0 0 0-1.264-.176 13.86 13.86 0 0 0-1.197-.1.644.644 0 0 0-1.163 0c-.405.017-.804.05-1.197.1a.644.644 0 0 0-1.264.176v.049c-3.116.71-5.686 2.49-7.001 4.859a2.506 2.506 0 0 0-2.093 2.685c-2.975.277-5.649 1.52-7.655 3.386h-4.05a.908.908 0 0 0-.69.318H5.43a2.118 2.118 0 0 0-1.957-1.337 2.106 2.106 0 0 0-2.082 2.397 2.107 2.107 0 0 0-1.066 3.104 2.106 2.106 0 0 0 1.778 3.229c.878 0 1.648-.554 1.958-1.337h1.704a.91.91 0 0 0 .586.623l2.02.686a10.897 10.897 0 0 0-.002 1.223c-.316.076-.61.207-.873.383a2.701 2.701 0 0 0-1.51-.46 2.721 2.721 0 0 0-2.717 2.719l.002.068h-.754c-.426 0-.803.24-.985.624a1.08 1.08 0 0 0 .144 1.156l1.934 2.35c.207.252.514.397.84.397h27.26a.644.644 0 1 0 0-1.29H4.545l-1.604-1.948h39.544l-1.603 1.949h-6.164a.645.645 0 1 0 0 1.289h6.258c.327 0 .633-.145.84-.397l1.934-2.35a1.08 1.08 0 0 0 .144-1.156 1.079 1.079 0 0 0-.984-.624h-.638a5.411 5.411 0 0 0 .64-3.671.645.645 0 0 0-.52-.52 5.409 5.409 0 0 0-5.008 1.731c-.37-.2-.79-.316-1.237-.325v-1.226h.688c1.09 0 1.977-.887 1.977-1.977v-.865h4.1c.6 0 1.088-.488 1.088-1.088v-1.866c0-.6-.488-1.088-1.089-1.088ZM6.291 33.707H4.56l-.002-.068a1.43 1.43 0 0 1 2.053-1.284 2.7 2.7 0 0 0-.323 1.284c0 .023.002.045.003.068Zm32.225-1.784a4.117 4.117 0 0 1 3.184-1.195 4.118 4.118 0 0 1-1.005 2.98h-1.063l.881-.881a.645.645 0 1 0-.911-.912l-.914.913a2.71 2.71 0 0 0-.348-.717c.057-.064.115-.127.176-.188Zm-13.013-17.98a10.714 10.714 0 0 1 3.309-1.452v.663a.644.644 0 1 0 1.29 0v-.918c.364-.053.735-.087 1.108-.106v1.024a.645.645 0 0 0 1.289 0V12.13c.373.02.743.054 1.109.106v.918a.645.645 0 0 0 1.289 0v-.663c1.206.308 2.333.799 3.309 1.452.95.637 1.724 1.406 2.288 2.256a2.526 2.526 0 0 0-.604.375 2.506 2.506 0 0 0-1.607-.587c-.595 0-1.163.215-1.607.587a2.506 2.506 0 0 0-1.607-.587c-.595 0-1.163.215-1.607.587a2.506 2.506 0 0 0-1.608-.587c-.594 0-1.162.215-1.607.587a2.506 2.506 0 0 0-1.607-.587c-.594 0-1.162.215-1.607.587a2.506 2.506 0 0 0-1.607-.587c-.594 0-1.162.215-1.607.587a2.524 2.524 0 0 0-.605-.375c.565-.85 1.339-1.62 2.29-2.256Zm-3.291 3.333c.43 0 .832.233 1.05.607a.645.645 0 0 0 1.114 0c.217-.374.62-.607 1.05-.607.43 0 .832.233 1.05.607a.645.645 0 0 0 1.115 0c.217-.374.619-.607 1.05-.607.43 0 .832.233 1.049.607a.645.645 0 0 0 1.115 0c.217-.374.62-.607 1.05-.607.43 0 .832.233 1.049.607a.645.645 0 0 0 1.115 0c.217-.374.62-.607 1.05-.607.43 0 .832.233 1.05.607a.645.645 0 0 0 1.114 0c.217-.374.62-.607 1.05-.607.43 0 .832.233 1.05.607a.645.645 0 0 0 1.114 0c.218-.374.62-.607 1.05-.607a1.215 1.215 0 0 1 0 2.427c-.43 0-.832-.232-1.05-.607a.645.645 0 0 0-1.114 0c-.218.375-.62.608-1.05.608-.43 0-.833-.233-1.05-.608a.645.645 0 0 0-1.115 0c-.217.375-.62.608-1.05.608-.43 0-.832-.233-1.049-.608a.645.645 0 0 0-1.115 0c-.217.375-.62.608-1.05.608-.43 0-.832-.233-1.05-.608a.645.645 0 0 0-1.114 0c-.218.375-.62.608-1.05.608-.43 0-.832-.233-1.05-.608a.645.645 0 0 0-1.114 0 1.22 1.22 0 0 1-.54.493 13.366 13.366 0 0 0-4.927-.942 1.215 1.215 0 0 1 1.202-1.37ZM8.392 23.38h2.472a11.78 11.78 0 0 0-.712.983h-1.76v-.983Zm-2.66 3.796H3.558a.644.644 0 0 0-.643.59.818.818 0 0 1-.81.747.815.815 0 0 1-.519-1.443.645.645 0 0 0 0-.993.815.815 0 0 1 .519-1.443c.42 0 .776.327.81.746a.644.644 0 0 0 .643.59h2.176v1.206Zm.221-2.494H4.061a2.129 2.129 0 0 0-1.36-1.248.813.813 0 1 1 1.583-.327.645.645 0 0 0 .642.591h2.177v.665h-.46a.909.909 0 0 0-.69.319Zm4.48 9.025H7.58a1.43 1.43 0 0 1 1.427-1.497 1.43 1.43 0 0 1 1.428 1.429l-.002.068Zm19.879 0h-2.244l-.002-.068a1.43 1.43 0 0 1 2.439-1.01 2.704 2.704 0 0 0-.196 1.01c0 .023.002.045.003.068Zm-.817-2.786a2.721 2.721 0 0 0-2.719 2.718c0 .023.002.045.003.068H11.722l.002-.068c0-1.273-.88-2.344-2.063-2.638a9.734 9.734 0 0 1-.016-.795l6.592 2.239a4.113 4.113 0 0 0 3.753-.556 4.106 4.106 0 0 0 1.732-3.375c0-.484-.083-.96-.247-1.413a.645.645 0 0 0-1.212.44c.113.311.17.639.17.973a2.83 2.83 0 0 1-1.195 2.327 2.83 2.83 0 0 1-2.587.383l-9.629-3.27v-2.302h10.55c.323 0 .641.055.946.162a.644.644 0 1 0 .427-1.217 4.142 4.142 0 0 0-1.373-.234h-5.845c2.056-2.676 5.438-4.428 9.256-4.428 6.253 0 11.34 4.696 11.34 10.468 0 .206-.006.412-.02.616-.389.108-.743.3-1.042.556a2.705 2.705 0 0 0-1.766-.654Zm4.959 2.786h-2.853a1.43 1.43 0 0 1 1.427-1.497c.787 0 1.428.64 1.428 1.429 0 .023 0 .046-.002.068Zm.404-2.486a2.72 2.72 0 0 0-.297.175 2.706 2.706 0 0 0-.964-.413 10.977 10.977 0 0 0-.01-1.287h1.271v1.525Zm2.665 2.418c0 .023-.002.045-.003.068h-1.777l.002-.068a2.7 2.7 0 0 0-.313-1.266 1.43 1.43 0 0 1 2.09 1.265Zm0-5.92c0 .38-.309.688-.688.688h-3.407c-.098-.53-.232-1.05-.404-1.553h4.499v.865Zm5.188-2.154H32.493a11.526 11.526 0 0 0-.853-1.464h2.735a.644.644 0 1 0 0-1.29h-3.756a12.413 12.413 0 0 0-2.077-1.82 2.46 2.46 0 0 0 1.705-.586 2.507 2.507 0 0 0 1.607.588c.595 0 1.163-.215 1.608-.588a2.506 2.506 0 0 0 1.607.588c.594 0 1.162-.215 1.607-.588a2.506 2.506 0 0 0 1.607.588c.594 0 1.162-.215 1.607-.588.215.18.459.323.72.423l-.96 1.984h-2.267a.644.644 0 1 0 0 1.289h5.328v1.464Z"/></svg>
